images/svgs/income.svg

<?xml version="1.0" encoding="iso-8859-1"?>
<!-- Generator: Adobe Illustrator 19.0.0, SVG Export Plug-In . SVG Version: 6.00 Build 0)  -->
<svg version="1.1" id="Capa_1" xmlns="http://www.w3.org/2000/svg" xmlns:xlink="http://www.w3.org/1999/xlink" x="0px" y="0px"
	 viewBox="0 0 496 496" style="enable-background:new 0 0 496 496;" xml:space="preserve">
<g>
	<g>
		<path d="M104,104c-8.824,0-16-7.176-16-16s7.176-16,16-16s16,7.176,16,16h16c0-17.648-14.352-32-32-32S72,70.352,72,88
			s14.352,32,32,32c8.824,0,16,7.176,16,16c0,8.824-7.176,16-16,16s-16-7.176-16-16H72c0,17.648,14.352,32,32,32s32-14.352,32-32
			S121.648,104,104,104z"/>
	</g>
</g>
<g>
	<g>
		<rect x="96" y="40" width="16" height="24"/>
	</g>
</g>
<g>
	<g>
		<rect x="96" y="160" width="16" height="24"/>
	</g>
</g>
<g>
	<g>
		<path d="M0,448v48h144v-48H0z M128,480H16v-16h112V480z"/>
	</g>
</g>
<g>
	<g>
		<path d="M0,416v48h144v-48H0z M128,448H16v-16h112V448z"/>
	</g>
</g>
<g>
	<g>
		<path d="M0,384v48h144v-48H0z M128,416H16v-16h112V416z"/>
	</g>
</g>
<g>
	<g>
		<polygon points="208,448 208,464 288,464 288,480 176,480 176,464 192,464 192,448 160,448 160,496 304,496 304,448 		"/>
	</g>
</g>
<g>
	<g>
		<polygon points="160,416 160,456 176,456 176,432 288,432 288,456 304,456 304,416 		"/>
	</g>
</g>
<g>
	<g>
		<path d="M160,384v48h144v-48H160z M288,416H176v-16h112V416z"/>
	</g>
</g>
<g>
	<g>
		<path d="M160,352v48h144v-48H160z M288,384H176v-16h112V384z"/>
	</g>
</g>
<g>
	<g>
		<path d="M160,320v48h144v-48H160z M288,352H176v-16h112V352z"/>
	</g>
</g>
<g>
	<g>
		<path d="M320,448v48h144v-48H320z M448,480H336v-16h112V480z"/>
	</g>
</g>
<g>
	<g>
		<path d="M320,416v48h144v-48H320z M448,448H336v-16h112V448z"/>
	</g>
</g>
<g>
	<g>
		<path d="M320,384v48h144v-48H320z M448,416H336v-16h112V416z"/>
	</g>
</g>
<g>
	<g>
		<path d="M320,352v48h144v-48H320z M448,384H336v-16h112V384z"/>
	</g>
</g>
<g>
	<g>
		<polygon points="432,320 432,336 448,336 448,352 336,352 336,336 416,336 416,320 320,320 320,368 464,368 464,320 		"/>
	</g>
</g>
<g>
	<g>
		<polygon points="320,288 320,328 336,328 336,304 448,304 448,328 464,328 464,288 		"/>
	</g>
</g>
<g>
	<g>
		<path d="M320,256v48h144v-48H320z M448,288H336v-16h112V288z"/>
	</g>
</g>
<g>
	<g>
		<path d="M376,0c-13.232,0-24,10.768-24,24s10.768,24,24,24h36.688l-117.84,117.848L231.48,126.24L3.056,305.656l9.888,12.584
			L232.52,145.768l64.632,40.392L451.312,32H376c-4.416,0-8-3.592-8-8s3.584-8,8-8h104v104c0,4.408-3.584,8-8,8
			c-4.416,0-8-3.592-8-8V52.688L302.608,214.072L231.192,174.4L27,337.752l10,12.496L232.808,193.6l72.584,40.328L448,91.312V120
			c0,13.232,10.768,24,24,24s24-10.768,24-24V0H376z"/>
	</g>
</g>
<g>
	<g>
		<rect x="32" y="104" width="16" height="16"/>
	</g>
</g>
<g>
	<g>
		<rect x="160" y="104" width="16" height="16"/>
	</g>
</g>
<g>
	<g>
		<path d="M104,8C46.656,8,0,54.656,0,112s46.656,104,104,104s104-46.656,104-104S161.344,8,104,8z M104,200
			c-48.52,0-88-39.48-88-88c0-48.52,39.48-88,88-88s88,39.48,88,88S152.52,200,104,200z"/>
	</g>
</g>
<g>
</g>
<g>
</g>
<g>
</g>
<g>
</g>
<g>
</g>
<g>
</g>
<g>
</g>
<g>
</g>
<g>
</g>
<g>
</g>
<g>
</g>
<g>
</g>
<g>
</g>
<g>
</g>
<g>
</g>
</svg>

<?xml version="1.0" encoding="UTF-8"?>
<svg width="496px" height="496px" viewBox="0 0 496 496" version="1.1" xmlns="http://www.w3.org/2000/svg" xmlns:xlink="http://www.w3.org/1999/xlink">
    <!-- Generator: Sketch 49.1 (51147) - http://www.bohemiancoding.com/sketch -->
    <title>income</title>
    <desc>Created with Sketch.</desc>
    <defs></defs>
    <g id="Page-1" stroke="none" stroke-width="1" fill="none" fill-rule="evenodd">
        <g id="income" fill="#FFFFFF" fill-rule="nonzero">
            <path d="M104,104 C95.176,104 88,96.824 88,88 C88,79.176 95.176,72 104,72 C112.824,72 120,79.176 120,88 L136,88 C136,70.352 121.648,56 104,56 C86.352,56 72,70.352 72,88 C72,105.648 86.352,120 104,120 C112.824,120 120,127.176 120,136 C120,144.824 112.824,152 104,152 C95.176,152 88,144.824 88,136 L72,136 C72,153.648 86.352,168 104,168 C121.648,168 136,153.648 136,136 C136,118.352 121.648,104 104,104 Z" id="Shape"></path>
            <rect id="Rectangle-path" x="96" y="40" width="16" height="24"></rect>
            <rect id="Rectangle-path" x="96" y="160" width="16" height="24"></rect>
            <path d="M0,448 L0,496 L144,496 L144,448 L0,448 Z M128,480 L16,480 L16,464 L128,464 L128,480 Z" id="Shape"></path>
            <path d="M0,416 L0,464 L144,464 L144,416 L0,416 Z M128,448 L16,448 L16,432 L128,432 L128,448 Z" id="Shape"></path>
            <path d="M0,384 L0,432 L144,432 L144,384 L0,384 Z M128,416 L16,416 L16,400 L128,400 L128,416 Z" id="Shape"></path>
            <polygon id="Shape" points="208 448 208 464 288 464 288 480 176 480 176 464 192 464 192 448 160 448 160 496 304 496 304 448"></polygon>
            <polygon id="Shape" points="160 416 160 456 176 456 176 432 288 432 288 456 304 456 304 416"></polygon>
            <path d="M160,384 L160,432 L304,432 L304,384 L160,384 Z M288,416 L176,416 L176,400 L288,400 L288,416 Z" id="Shape"></path>
            <path d="M160,352 L160,400 L304,400 L304,352 L160,352 Z M288,384 L176,384 L176,368 L288,368 L288,384 Z" id="Shape"></path>
            <path d="M160,320 L160,368 L304,368 L304,320 L160,320 Z M288,352 L176,352 L176,336 L288,336 L288,352 Z" id="Shape"></path>
            <path d="M320,448 L320,496 L464,496 L464,448 L320,448 Z M448,480 L336,480 L336,464 L448,464 L448,480 Z" id="Shape"></path>
            <path d="M320,416 L320,464 L464,464 L464,416 L320,416 Z M448,448 L336,448 L336,432 L448,432 L448,448 Z" id="Shape"></path>
            <path d="M320,384 L320,432 L464,432 L464,384 L320,384 Z M448,416 L336,416 L336,400 L448,400 L448,416 Z" id="Shape"></path>
            <path d="M320,352 L320,400 L464,400 L464,352 L320,352 Z M448,384 L336,384 L336,368 L448,368 L448,384 Z" id="Shape"></path>
            <polygon id="Shape" points="432 320 432 336 448 336 448 352 336 352 336 336 416 336 416 320 320 320 320 368 464 368 464 320"></polygon>
            <polygon id="Shape" points="320 288 320 328 336 328 336 304 448 304 448 328 464 328 464 288"></polygon>
            <path d="M320,256 L320,304 L464,304 L464,256 L320,256 Z M448,288 L336,288 L336,272 L448,272 L448,288 Z" id="Shape"></path>
            <path d="M376,0 C362.768,0 352,10.768 352,24 C352,37.232 362.768,48 376,48 L412.688,48 L294.848,165.848 L231.48,126.24 L3.056,305.656 L12.944,318.24 L232.52,145.768 L297.152,186.16 L451.312,32 L376,32 C371.584,32 368,28.408 368,24 C368,19.592 371.584,16 376,16 L480,16 L480,120 C480,124.408 476.416,128 472,128 C467.584,128 464,124.408 464,120 L464,52.688 L302.608,214.072 L231.192,174.4 L27,337.752 L37,350.248 L232.808,193.6 L305.392,233.928 L448,91.312 L448,120 C448,133.232 458.768,144 472,144 C485.232,144 496,133.232 496,120 L496,0 L376,0 Z" id="Shape"></path>
            <rect id="Rectangle-path" x="32" y="104" width="16" height="16"></rect>
            <rect id="Rectangle-path" x="160" y="104" width="16" height="16"></rect>
            <path d="M104,8 C46.656,8 0,54.656 0,112 C0,169.344 46.656,216 104,216 C161.344,216 208,169.344 208,112 C208,54.656 161.344,8 104,8 Z M104,200 C55.48,200 16,160.52 16,112 C16,63.48 55.48,24 104,24 C152.52,24 192,63.48 192,112 C192,160.52 152.52,200 104,200 Z" id="Shape"></path>
        </g>
    </g>
</svg>
